en/_assets/wiki/svg/wysiwyg/nested-list-down.svg

<svg xmlns="http://www.w3.org/2000/svg" xmlns:xlink="http://www.w3.org/1999/xlink" width="16" height="16" class="yc-icon" fill="currentColor" stroke="none" aria-hidden="true"><path d="M11.2812 10.5449H0.71875C0.490234 10.5449 0.3125 10.748 0.3125 10.9512V11.3574C0.3125 11.5859 0.490234 11.7637 0.71875 11.7637H11.2812C11.4844 11.7637 11.6875 11.5859 11.6875 11.3574V10.9512C11.6875 10.748 11.4844 10.5449 11.2812 10.5449ZM0.998047 9.02148L3.43555 6.58398C3.48633 6.50781 3.53711 6.38086 3.53711 6.2793C3.53711 6.20312 3.48633 6.07617 3.43555 6L0.998047 3.5625C0.744141 3.30859 0.3125 3.48633 0.3125 3.8418V8.7168C0.3125 9.09766 0.744141 9.27539 0.998047 9.02148ZM11.3574 4.04492H5.49219C5.31445 4.04492 5.1875 4.19727 5.1875 4.375V4.95898C5.1875 5.13672 5.31445 5.26367 5.49219 5.26367H11.3574C11.5352 5.26367 11.6875 5.13672 11.6875 4.95898V4.375C11.6875 4.19727 11.5352 4.04492 11.3574 4.04492ZM11.2812 0.998047H0.71875C0.490234 0.998047 0.3125 1.20117 0.3125 1.4043V1.81055C0.3125 2.03906 0.490234 2.2168 0.71875 2.2168H11.2812C11.4844 2.2168 11.6875 2.03906 11.6875 1.81055V1.4043C11.6875 1.20117 11.4844 0.998047 11.2812 0.998047ZM11.3574 7.29492H5.49219C5.31445 7.29492 5.1875 7.44727 5.1875 7.625V8.20898C5.1875 8.38672 5.31445 8.51367 5.49219 8.51367H11.3574C11.5352 8.51367 11.6875 8.38672 11.6875 8.20898V7.625C11.6875 7.44727 11.5352 7.29492 11.3574 7.29492Z" fill="currentColor"></path></svg>

<svg xmlns="http://www.w3.org/2000/svg" width="16" height="16" fill="currentColor" aria-hidden="true" class="yc-icon"><path d="M11.281 10.545H.72a.418.418 0 0 0-.406.406v.406c0 .229.177.407.406.407H11.28a.418.418 0 0 0 .406-.407v-.406a.437.437 0 0 0-.406-.406ZM.998 9.02l2.438-2.437a.622.622 0 0 0 .101-.305A.625.625 0 0 0 3.436 6L.998 3.562a.4.4 0 0 0-.685.28v4.875c0 .38.431.558.685.304Zm10.36-4.976H5.491c-.178 0-.304.152-.304.33v.584c0 .178.126.305.304.305h5.865c.178 0 .33-.127.33-.305v-.584a.336.336 0 0 0-.33-.33ZM11.28.998H.72a.418.418 0 0 0-.406.406v.407c0 .228.177.406.406.406H11.28a.418.418 0 0 0 .406-.406v-.407a.437.437 0 0 0-.406-.406Zm.076 6.297H5.492c-.178 0-.304.152-.304.33v.584c0 .178.126.305.304.305h5.865c.178 0 .33-.127.33-.305v-.584a.336.336 0 0 0-.33-.33Z"/></svg>
